;FLAVOR:UltiGCode
;TIME:5766
;MATERIAL:12426
;MATERIAL2:0
;NOZZLE_DIAMETER:0.4
;MINX:93.477
;MINY:74.09
;MINZ:0.27
;MAXX:129.523
;MAXY:144.928
;MAXZ:28.02
;Generated with Cura_SteamEngine 4.13.1
M82 ;absolute extrusion mode
G0 F3000 Y50 ;avoid prime blob
G92 E0
G92 E0
G10
;LAYER_COUNT:187
;LAYER:0
M107
G0 F4500 X95.351 Y76.869 Z0.27
;TYPE:SKIRT
G11
G1 F1800 X95.894 Y76.291 E0.07494
G1 X96.493 Y75.77 E0.14996
G1 X97.141 Y75.313 E0.2249
G1 X97.832 Y74.923 E0.29988
G1 X98.559 Y74.604 E0.3749
G1 X99.314 Y74.361 E0.44986
G1 X100.09 Y74.194 E0.52487
G1 X100.879 Y74.106 E0.59989
G1 X101.351 Y74.092 E0.64451
G1 X108.664 Y74.09 E1.33559
G1 X121.648 Y74.092 E2.56258
G1 X122.441 Y74.132 E2.63761
G1 X123.225 Y74.252 E2.71256
G1 X123.993 Y74.45 E2.78751
G1 X124.738 Y74.724 E2.86253
G1 X125.451 Y75.072 E2.9375
G1 X126.126 Y75.49 E3.01253
G1 X126.755 Y75.973 E3.08747
G1 X127.332 Y76.518 E3.16248
G1 X127.852 Y77.117 E3.23744
G1 X128.308 Y77.766 E3.31239
G1 X128.697 Y78.458 E3.38741
G1 X129.014 Y79.185 E3.46236
G1 X129.257 Y79.941 E3.5374
G1 X129.422 Y80.717 E3.61237
G1 X129.508 Y81.506 E3.68738
G1 X129.522 Y81.966 E3.73087
G1 X129.523 Y88.675 E4.36487
G1 X129.497 Y112.325 E6.59979
G1 X129.522 Y128.878 E8.16405
G1 X129.483 Y129.671 E8.23908
G1 X129.365 Y130.455 E8.314
G1 X129.168 Y131.224 E8.38902
G1 X128.895 Y131.969 E8.464
G1 X128.549 Y132.683 E8.53898
G1 X128.132 Y133.358 E8.61396
G1 X127.649 Y133.988 E8.68898
G1 X127.106 Y134.566 E8.76392
G1 X126.507 Y135.087 E8.83894
G1 X125.859 Y135.544 E8.91387
G1 X125.168 Y135.934 E8.98886
G1 X124.441 Y136.253 E9.06388
G1 X123.686 Y136.496 E9.13883
G1 X122.91 Y136.663 E9.21384
G1 X122.121 Y136.751 E9.28887
G1 X121.647 Y136.765 E9.33368
G1 X101.353 Y136.765 E11.25146
G1 X100.561 Y136.725 E11.3264
G1 X99.776 Y136.606 E11.40143
G1 X99.008 Y136.408 E11.47638
G1 X98.263 Y136.133 E11.55143
G1 X97.55 Y135.786 E11.62636
G1 X96.875 Y135.368 E11.70139
G1 X96.246 Y134.885 E11.77633
G1 X95.669 Y134.34 E11.85134
G1 X95.149 Y133.741 E11.92629
G1 X94.693 Y133.092 E12.00125
G1 X94.304 Y132.4 E12.07627
G1 X93.986 Y131.673 E12.15125
G1 X93.743 Y130.917 E12.2263
G1 X93.578 Y130.141 E12.30127
G1 X93.492 Y129.353 E12.37618
G1 X93.478 Y128.891 E12.41986
G1 X93.477 Y122.181 E13.05395
G1 X93.503 Y98.532 E15.28878
G1 X93.478 Y81.979 E16.85304
G1 X93.517 Y81.186 E16.92807
G1 X93.635 Y80.402 E17.00299
G1 X93.832 Y79.633 E17.07801
G1 X94.105 Y78.888 E17.15299
G1 X94.451 Y78.174 E17.22797
G1 X94.868 Y77.499 E17.30295
G1 X95.351 Y76.869 E17.37797
G0 F4500 X95.697 Y77.003
G1 F1800 X96.238 Y76.447 E17.45128
G1 X96.834 Y75.95 E17.52461
G1 X97.477 Y75.517 E17.59787
G1 X98.161 Y75.152 E17.67113
G1 X98.88 Y74.86 E17.74447
G1 X99.625 Y74.643 E17.8178
G1 X100.388 Y74.504 E17.89109
G1 X101.351 Y74.442 E17.98228
G1 X108.664 Y74.44 E18.67336
G1 X121.648 Y74.442 E19.90034
G1 X122.423 Y74.482 E19.97368
G1 X123.189 Y74.602 E20.04695
G1 X123.939 Y74.8 E20.12025
G1 X124.665 Y75.074 E20.19358
G1 X125.358 Y75.421 E20.26682
G1 X126.012 Y75.838 E20.34012
G1 X126.62 Y76.32 E20.41344
G1 X127.175 Y76.861 E20.48668
G1 X127.671 Y77.458 E20.56003
G1 X128.103 Y78.102 E20.63331
G1 X128.467 Y78.787 E20.70662
G1 X128.758 Y79.506 E20.77992
G1 X128.974 Y80.251 E20.85322
G1 X129.111 Y81.014 E20.92647
G1 X129.172 Y81.966 E21.01662
G1 X129.173 Y88.674 E21.65053
G1 X129.147 Y112.324 E23.88546
G1 X129.172 Y128.879 E25.44991
G1 X129.133 Y129.653 E25.52314
G1 X129.015 Y130.42 E25.59648
G1 X128.818 Y131.17 E25.66975
G1 X128.545 Y131.896 E25.74305
G1 X128.199 Y132.59 E25.81633
G1 X127.784 Y133.245 E25.88961
G1 X127.303 Y133.854 E25.96295
G1 X126.762 Y134.41 E26.03626
G1 X126.166 Y134.907 E26.10959
G1 X125.523 Y135.34 E26.18285
G1 X124.839 Y135.705 E26.25611
G1 X124.12 Y135.997 E26.32945
G1 X123.375 Y136.214 E26.40278
G1 X122.612 Y136.353 E26.47607
G1 X121.647 Y136.415 E26.56745
G1 X101.353 Y136.415 E28.48523
G1 X100.578 Y136.375 E28.55856
G1 X99.812 Y136.256 E28.63182
G1 X99.062 Y136.058 E28.70512
G1 X98.336 Y135.784 E28.77845
G1 X97.643 Y135.437 E28.85169
G1 X96.989 Y135.02 E28.92499
G1 X96.381 Y134.538 E28.99831
G1 X95.826 Y133.996 E29.07162
G1 X95.329 Y133.4 E29.14495
G1 X94.897 Y132.756 E29.21824
G1 X94.534 Y132.071 E29.2915
G1 X94.242 Y131.352 E29.36483
G1 X94.027 Y130.607 E29.43811
G1 X93.889 Y129.844 E29.51138
G1 X93.828 Y128.891 E29.60162
G1 X93.827 Y122.182 E30.23562
G1 X93.853 Y98.533 E32.47046
G1 X93.828 Y81.978 E34.0349
G1 X93.867 Y81.204 E34.10814
G1 X93.985 Y80.437 E34.18147
G1 X94.182 Y79.687 E34.25475
G1 X94.455 Y78.961 E34.32805
G1 X94.801 Y78.267 E34.40133
G1 X95.216 Y77.612 E34.47461
G1 X95.697 Y77.003 E34.54794
G0 F4500 X96.044 Y77.141
G1 F1800 X96.582 Y76.608 E34.61951
G1 X97.173 Y76.135 E34.69105
G1 X97.811 Y75.727 E34.76261
G1 X98.489 Y75.389 E34.8342
G1 X99.198 Y75.123 E34.90576
G1 X99.931 Y74.934 E34.9773
G1 X100.681 Y74.824 E35.04893
G1 X101.351 Y74.792 E35.11232
G1 X108.664 Y74.79 E35.8034
G1 X121.648 Y74.792 E37.03038
G1 X122.404 Y74.832 E37.10193
G1 X123.152 Y74.952 E37.17352
G1 X123.883 Y75.149 E37.24506
G1 X124.59 Y75.423 E37.31671
G1 X125.263 Y75.77 E37.38827
G1 X125.896 Y76.185 E37.4598
G1 X126.482 Y76.666 E37.53144
G1 X127.014 Y77.205 E37.60301
G1 X127.486 Y77.797 E37.67455
G1 X127.893 Y78.436 E37.74615
G1 X128.23 Y79.114 E37.8177
G1 X128.494 Y79.823 E37.88919
G1 X128.682 Y80.557 E37.96079
G1 X128.792 Y81.307 E38.03243
G1 X128.822 Y81.966 E38.09477
G1 X128.823 Y88.674 E38.72867
G1 X128.797 Y112.324 E40.9636
G1 X128.822 Y128.879 E42.52805
G1 X128.783 Y129.636 E42.59968
G1 X128.665 Y130.384 E42.67124
G1 X128.468 Y131.115 E42.74278
G1 X128.196 Y131.822 E42.81437
G1 X127.85 Y132.496 E42.88597
G1 X127.436 Y133.129 E42.95744
G1 X126.956 Y133.716 E43.0291
G1 X126.418 Y134.249 E43.10066
G1 X125.827 Y134.722 E43.1722
G1 X125.189 Y135.13 E43.24376
G1 X124.511 Y135.468 E43.31536
G1 X123.802 Y135.734 E43.38692
G1 X123.069 Y135.923 E43.45845
G1 X122.319 Y136.033 E43.53008
G1 X121.647 Y136.065 E43.59366
G1 X101.353 Y136.065 E45.51144
G1 X100.597 Y136.025 E45.58298
G1 X99.849 Y135.906 E45.65456
G1 X99.118 Y135.708 E45.72613
G1 X98.411 Y135.434 E45.79778
G1 X97.738 Y135.088 E45.86929
G1 X97.105 Y134.672 E45.94087
G1 X96.519 Y134.192 E46.01246
G1 X95.987 Y133.653 E46.08402
G1 X95.515 Y133.061 E46.15557
G1 X95.108 Y132.422 E46.22717
G1 X94.77 Y131.744 E46.29876
G1 X94.506 Y131.035 E46.37025
G1 X94.318 Y130.301 E46.44185
G1 X94.209 Y129.552 E46.51338
G1 X94.178 Y128.891 E46.57591
G1 X94.177 Y122.182 E47.20991
G1 X94.203 Y98.533 E49.44475
G1 X94.178 Y81.978 E51.00919
G1 X94.217 Y81.221 E51.08083
G1 X94.335 Y80.473 E51.15239
G1 X94.532 Y79.742 E51.22393
G1 X94.804 Y79.035 E51.29552
G1 X95.15 Y78.361 E51.36711
G1 X95.564 Y77.728 E51.43859
G1 X96.044 Y77.141 E51.51024
G0 F4500 X96.389 Y77.283
G1 F1800 X96.925 Y76.774 E51.5801
G1 X97.512 Y76.326 E51.64988
G1 X98.144 Y75.944 E51.71966
G1 X98.814 Y75.632 E51.78951
G1 X99.513 Y75.395 E51.85926
G1 X100.234 Y75.234 E51.92907
G1 X100.968 Y75.153 E51.99885
G1 X101.351 Y75.142 E52.03506
G1 X108.664 Y75.14 E52.72614
G1 X121.648 Y75.142 E53.95313
G1 X122.386 Y75.182 E54.02297
G1 X123.115 Y75.302 E54.09279
G1 X123.826 Y75.499 E54.16251
G1 X124.512 Y75.773 E54.23232
G1 X125.165 Y76.119 E54.30215
G1 X125.776 Y76.533 E54.3719
G1 X126.34 Y77.011 E54.44176
G1 X126.848 Y77.547 E54.51155
G1 X127.295 Y78.135 E54.58135
G1 X127.676 Y78.768 E54.65117
G1 X127.986 Y79.438 E54.72093
G1 X128.222 Y80.138 E54.79074
G1 X128.382 Y80.859 E54.86053
G1 X128.462 Y81.594 E54.9304
G1 X128.472 Y81.966 E54.96556
G1 X128.473 Y88.674 E55.59947
G1 X128.447 Y112.324 E57.8344
G1 X128.472 Y128.88 E59.39894
G1 X128.433 Y129.617 E59.46868
G1 X128.315 Y130.346 E59.53847
G1 X128.118 Y131.058 E59.60828
G1 X127.846 Y131.745 E59.67811
G1 X127.501 Y132.398 E59.7479
G1 X127.088 Y133.01 E59.81767
G1 X126.611 Y133.574 E59.88747
G1 X126.075 Y134.083 E59.95733
G1 X125.488 Y134.531 E60.02711
G1 X124.856 Y134.913 E60.09689
G1 X124.186 Y135.225 E60.16674
G1 X123.487 Y135.462 E60.23649
G1 X122.766 Y135.623 E60.3063
G1 X122.032 Y135.704 E60.37608
G1 X121.647 Y135.715 E60.41248
G1 X101.353 Y135.715 E62.33026
G1 X100.615 Y135.675 E62.40011
G1 X99.887 Y135.556 E62.46982
G1 X99.175 Y135.358 E62.53965
G1 X98.489 Y135.085 E62.60942
G1 X97.836 Y134.739 E62.67926
G1 X97.224 Y134.325 E62.74908
G1 X96.661 Y133.847 E62.81888
G1 X96.153 Y133.311 E62.88866
G1 X95.706 Y132.723 E62.95846
G1 X95.325 Y132.09 E63.02828
G1 X95.014 Y131.42 E63.09809
G1 X94.778 Y130.72 E63.16789
G1 X94.619 Y129.999 E63.23767
G1 X94.538 Y129.264 E63.30754
G1 X94.528 Y128.891 E63.3428
G1 X94.527 Y122.182 E63.9768
G1 X94.553 Y98.533 E66.21164
G1 X94.528 Y81.977 E67.77618
G1 X94.567 Y81.24 E67.84592
G1 X94.685 Y80.511 E67.91571
G1 X94.882 Y79.799 E67.98552
G1 X95.154 Y79.112 E68.05535
G1 X95.499 Y78.459 E68.12514
G1 X95.912 Y77.847 E68.19491
G1 X96.389 Y77.283 E68.26471
G0 F4500 X96.26 Y77.969
G1 F1800 X96.735 Y77.429 E68.33268
G1 X97.267 Y76.944 E68.40071
G1 X97.849 Y76.522 E68.46864
G1 X98.475 Y76.167 E68.53665
G1 X99.136 Y75.883 E68.60464
G1 X99.825 Y75.675 E68.67265
G1 X100.532 Y75.544 E68.7406
G1 X101.351 Y75.492 E68.81815
G1 X108.664 Y75.49 E69.50923
G1 X121.648 Y75.492 E70.73622
G1 X122.366 Y75.532 E70.80417
G1 X123.076 Y75.652 E70.87222
G1 X123.768 Y75.849 E70.94021
G1 X124.433 Y76.122 E71.00814
G1 X125.064 Y76.467 E71.0761
G1 X125.653 Y76.88 E71.14408
G1 X126.193 Y77.356 E71.21211
G1 X126.677 Y77.889 E71.28014
G1 X127.098 Y78.472 E71.3481
G1 X127.452 Y79.098 E71.41606
G1 X127.734 Y79.76 E71.48406
G1 X127.942 Y80.449 E71.55207
G1 X128.071 Y81.157 E71.62008
G1 X128.122 Y81.966 E71.69668
G1 X128.123 Y88.673 E72.33049
G1 X128.097 Y112.323 E74.56542
G1 X128.122 Y128.88 E76.13006
G1 X128.083 Y129.599 E76.1981
G1 X127.965 Y130.308 E76.26603
G1 X127.768 Y131 E76.33402
G1 X127.497 Y131.666 E76.40197
G1 X127.152 Y132.298 E76.47001
G1 X126.74 Y132.888 E76.53801
G1 X126.265 Y133.428 E76.60598
G1 X125.733 Y133.913 E76.67401
G1 X125.151 Y134.335 E76.74194
G1 X124.525 Y134.69 E76.80995
G1 X123.864 Y134.974 E76.87794
G1 X123.175 Y135.182 E76.94595
G1 X122.468 Y135.313 E77.0139
G1 X121.647 Y135.365 E77.09164
G1 X101.353 Y135.365 E79.00942
G1 X100.635 Y135.325 E79.07738
G1 X99.925 Y135.206 E79.14541
G1 X99.233 Y135.008 E79.21342
G1 X98.568 Y134.735 E79.28136
G1 X97.936 Y134.39 E79.3494
G1 X97.347 Y133.977 E79.41738
G1 X96.808 Y133.501 E79.48533
G1 X96.324 Y132.969 E79.5533
G1 X95.903 Y132.386 E79.62126
G1 X95.549 Y131.759 E79.6893
G1 X95.266 Y131.098 E79.75725
G1 X95.059 Y130.409 E79.82523
G1 X94.929 Y129.701 E79.89326
G1 X94.878 Y128.891 E79.96996
G1 X94.877 Y122.183 E80.60386
G1 X94.903 Y98.534 E82.83869
G1 X94.878 Y81.977 E84.40333
G1 X94.917 Y81.258 E84.47138
G1 X95.035 Y80.549 E84.5393
G1 X95.232 Y79.857 E84.60729
G1 X95.503 Y79.191 E84.67524
G1 X95.848 Y78.559 E84.74328
G1 X96.26 Y77.969 E84.81129
G0 F4500 X96.607 Y78.095
G1 F1800 X97.08 Y77.579 E84.87744
G1 X97.608 Y77.12 E84.94355
G1 X98.185 Y76.725 E85.00963
G1 X98.804 Y76.398 E85.07578
G1 X99.455 Y76.143 E85.14186
G1 X100.132 Y75.965 E85.20801
G1 X100.825 Y75.865 E85.27417
G1 X101.351 Y75.842 E85.32393
G1 X108.664 Y75.84 E86.01501
G1 X121.648 Y75.842 E87.24199
G1 X122.347 Y75.882 E87.30816
G1 X123.036 Y76.002 E87.37425
G1 X123.707 Y76.199 E87.44033
G1 X124.352 Y76.472 E87.50652
G1 X124.961 Y76.816 E87.57262
G1 X125.527 Y77.227 E87.63872
G1 X126.042 Y77.701 E87.70486
G1 X126.5 Y78.23 E87.77099
G1 X126.894 Y78.808 E87.83709
G1 X127.22 Y79.427 E87.9032
G1 X127.474 Y80.079 E87.96933
G1 X127.651 Y80.756 E88.03545
G1 X127.75 Y81.449 E88.10161
G1 X127.772 Y81.966 E88.15051
G1 X127.773 Y88.673 E88.78432
G1 X127.747 Y112.323 E91.01925
G1 X127.772 Y128.881 E92.58398
G1 X127.733 Y129.579 E92.65004
G1 X127.615 Y130.269 E92.71619
G1 X127.419 Y130.941 E92.78234
G1 X127.147 Y131.586 E92.84849
G1 X126.804 Y132.195 E92.91455
G1 X126.393 Y132.762 E92.98072
G1 X125.92 Y133.278 E93.04687
G1 X125.392 Y133.737 E93.11299
G1 X124.815 Y134.132 E93.17907
G1 X124.196 Y134.459 E93.24522
G1 X123.545 Y134.714 E93.31129
G1 X122.868 Y134.892 E93.37744
G1 X122.175 Y134.992 E93.44361
G1 X121.647 Y135.015 E93.49355
G1 X101.353 Y135.015 E95.41134
G1 X100.654 Y134.975 E95.4775
G1 X99.965 Y134.856 E95.54357
G1 X99.294 Y134.658 E95.60969
G1 X98.649 Y134.386 E95.67584
G1 X98.04 Y134.042 E95.74193
G1 X97.474 Y133.63 E95.80809
G1 X96.959 Y133.157 E95.87417
G1 X96.501 Y132.628 E95.94029
G1 X96.106 Y132.05 E96.00645
G1 X95.78 Y131.431 E96.07256
G1 X95.526 Y130.779 E96.13869
G1 X95.349 Y130.102 E96.20481
G1 X95.25 Y129.409 E96.27097
G1 X95.228 Y128.891 E96.31996
G1 X95.227 Y122.183 E96.95387
G1 X95.253 Y98.534 E99.1887
G1 X95.228 Y81.976 E100.75343
G1 X95.267 Y81.278 E100.8195
G1 X95.385 Y80.588 E100.88565
G1 X95.581 Y79.916 E100.9518
G1 X95.853 Y79.271 E101.01795
G1 X96.196 Y78.662 E101.084
G1 X96.607 Y78.095 E101.15018
G0 F4500 X96.954 Y78.226
G1 F1800 X97.424 Y77.735 E101.21441
G1 X97.948 Y77.303 E101.27859
G1 X98.519 Y76.935 E101.34278
G1 X99.13 Y76.637 E101.40702
G1 X99.771 Y76.413 E101.47119
G1 X100.435 Y76.266 E101.53546
G1 X101.351 Y76.192 E101.6223
G1 X108.664 Y76.19 E102.31338
G1 X121.648 Y76.192 E103.54037
G1 X122.326 Y76.232 E103.60455
G1 X122.995 Y76.352 E103.66878
G1 X123.645 Y76.549 E103.73296
G1 X124.268 Y76.821 E103.7972
G1 X124.854 Y77.164 E103.86137
G1 X125.396 Y77.574 E103.92559
G1 X125.886 Y78.045 E103.98982
G1 X126.317 Y78.57 E104.05401
G1 X126.684 Y79.142 E104.11823
G1 X126.981 Y79.753 E104.18243
G1 X127.204 Y80.394 E104.24657
G1 X127.35 Y81.058 E104.31081
G1 X127.422 Y81.966 E104.39689
G1 X127.423 Y88.672 E105.03061
G1 X127.397 Y112.322 E107.26553
G1 X127.422 Y128.881 E108.83036
G1 X127.383 Y129.56 E108.89463
G1 X127.265 Y130.229 E108.95883
G1 X127.069 Y130.879 E109.02298
G1 X126.798 Y131.502 E109.08719
G1 X126.455 Y132.089 E109.15143
G1 X126.046 Y132.631 E109.2156
G1 X125.576 Y133.122 E109.27983
G1 X125.052 Y133.554 E109.34401
G1 X124.481 Y133.922 E109.4082
G1 X123.87 Y134.22 E109.47244
G1 X123.229 Y134.444 E109.53661
G1 X122.565 Y134.591 E109.60088
G1 X121.647 Y134.665 E109.68791
G1 X101.353 Y134.665 E111.60569
G1 X100.675 Y134.625 E111.66987
G1 X100.006 Y134.506 E111.73409
G1 X99.356 Y134.309 E111.79827
G1 X98.733 Y134.037 E111.86251
G1 X98.147 Y133.693 E111.92672
G1 X97.605 Y133.283 E111.99095
G1 X97.115 Y132.813 E112.05511
G1 X96.684 Y132.288 E112.1193
G1 X96.317 Y131.716 E112.18352
G1 X96.02 Y131.105 E112.24772
G1 X95.796 Y130.463 E112.31198
G1 X95.65 Y129.8 E112.37613
G1 X95.578 Y128.891 E112.4623
G1 X95.577 Y122.184 E113.09611
G1 X95.603 Y98.535 E115.33095
G1 X95.578 Y81.976 E116.89577
G1 X95.617 Y81.297 E116.96004
G1 X95.735 Y80.628 E117.02424
G1 X95.931 Y79.978 E117.0884
G1 X96.202 Y79.355 E117.1526
G1 X96.545 Y78.768 E117.21685
G1 X96.954 Y78.226 E117.28101
G0 F4500 X97.3 Y78.361
G1 F1800 X97.767 Y77.896 E117.34329
G1 X98.287 Y77.492 E117.40552
G1 X98.852 Y77.153 E117.46778
G1 X99.453 Y76.886 E117.52993
G1 X100.083 Y76.693 E117.5922
G1 X100.731 Y76.578 E117.65439
G1 X101.352 Y76.542 E117.71317
G1 X108.664 Y76.54 E118.40416
G1 X121.648 Y76.542 E119.63115
G1 X122.305 Y76.582 E119.69335
G1 X122.953 Y76.701 E119.75561
G1 X123.581 Y76.898 E119.8178
G1 X124.181 Y77.17 E119.88006
G1 X124.743 Y77.512 E119.94223
G1 X125.26 Y77.92 E120.00447
G1 X125.724 Y78.388 E120.06674
G1 X126.127 Y78.908 E120.12891
G1 X126.465 Y79.474 E120.19121
G1 X126.732 Y80.076 E120.25345
G1 X126.923 Y80.706 E120.31566
G1 X127.037 Y81.354 E120.37783
G1 X127.072 Y81.966 E120.43576
G1 X127.073 Y88.672 E121.06948
G1 X127.047 Y112.322 E123.30441
G1 X127.072 Y128.882 E124.86933
G1 X127.033 Y129.539 E124.93152
G1 X126.915 Y130.187 E124.99377
G1 X126.719 Y130.816 E125.05603
G1 X126.448 Y131.416 E125.11824
G1 X126.107 Y131.979 E125.18044
G1 X125.7 Y132.496 E125.24262
G1 X125.233 Y132.961 E125.3049
G1 X124.713 Y133.365 E125.36713
G1 X124.148 Y133.704 E125.42939
G1 X123.547 Y133.971 E125.49154
G1 X122.917 Y134.164 E125.55381
G1 X122.269 Y134.279 E125.616
G1 X121.647 Y134.315 E125.67488
G1 X101.353 Y134.315 E127.59266
G1 X100.696 Y134.275 E127.65486
G1 X100.048 Y134.156 E127.71712
G1 X99.42 Y133.959 E127.77932
G1 X98.82 Y133.687 E127.84157
G1 X98.257 Y133.345 E127.90382
