;FLAVOR:UltiGCode
;TIME:5654
;MATERIAL:12109
;MATERIAL2:0
;NOZZLE_DIAMETER:0.4
;MINX:95.2
;MINY:78.076
;MINZ:0.27
;MAXX:127.8
;MAXY:144.928
;MAXZ:28.02
;Generated with Cura_SteamEngine 4.13.1
M82 ;absolute extrusion mode
G0 F3000 Y50 ;avoid prime blob
G92 E0
G92 E0
G10
;LAYER_COUNT:187
;LAYER:0
M107
G0 F4500 X98.482 Y79.944 Z0.27
;TYPE:SKIRT
G11
G1 F1800 X98.82 Y79.535 E0.05014
G1 X99.215 Y79.181 E0.10026
G1 X99.659 Y78.89 E0.15043
G1 X100.142 Y78.67 E0.20059
G1 X100.652 Y78.524 E0.25072
G1 X101.265 Y78.453 E0.30903
G1 X101.723 Y78.442 E0.35233
G1 X108.663 Y78.44 E1.00816
G1 X121.216 Y78.442 E2.19442
G1 X121.71 Y78.453 E2.24111
G1 X122.239 Y78.505 E2.29134
G1 X122.753 Y78.635 E2.34144
G1 X123.242 Y78.841 E2.39159
G1 X123.694 Y79.118 E2.44168
G1 X124.1 Y79.46 E2.49185
G1 X124.45 Y79.859 E2.54201
G1 X124.736 Y80.306 E2.59215
G1 X124.952 Y80.791 E2.64233
G1 X125.092 Y81.303 E2.69249
G1 X125.156 Y81.913 E2.75045
G1 X125.172 Y82.802 E2.83447
G1 X125.173 Y88.67 E3.389
G1 X125.147 Y112.583 E5.64878
G1 X125.171 Y128.182 E7.12289
G1 X125.162 Y128.923 E7.19291
G1 X125.115 Y129.451 E7.24301
G1 X124.99 Y129.967 E7.29318
G1 X124.789 Y130.458 E7.34332
G1 X124.516 Y130.913 E7.39346
G1 X124.178 Y131.323 E7.44367
G1 X123.783 Y131.676 E7.49374
G1 X123.339 Y131.967 E7.5439
G1 X122.856 Y132.187 E7.59406
G1 X122.346 Y132.333 E7.64419
G1 X121.748 Y132.403 E7.70109
G1 X121.319 Y132.415 E7.74164
G1 X102.015 Y132.415 E9.56587
G1 X101.317 Y132.406 E9.63184
G1 X100.788 Y132.359 E9.68202
G1 X100.272 Y132.233 E9.73222
G1 X99.781 Y132.032 E9.78236
G1 X99.326 Y131.759 E9.8325
G1 X98.917 Y131.421 E9.88264
G1 X98.564 Y131.025 E9.93277
G1 X98.274 Y130.581 E9.98289
G1 X98.054 Y130.098 E10.03304
G1 X97.908 Y129.587 E10.08326
G1 X97.838 Y128.969 E10.14204
G1 X97.828 Y128.522 E10.18429
G1 X97.827 Y122.186 E10.78304
G1 X97.853 Y98.274 E13.04273
G1 X97.829 Y82.606 E14.52335
G1 X97.837 Y81.935 E14.58677
G1 X97.883 Y81.406 E14.63695
G1 X98.009 Y80.891 E14.68705
G1 X98.21 Y80.4 E14.73719
G1 X98.482 Y79.944 E14.78736
G0 F4500 X98.829 Y80.063
G1 F1800 X99.163 Y79.687 E14.83489
G1 X99.553 Y79.368 E14.8825
G1 X99.988 Y79.115 E14.93006
G1 X100.458 Y78.933 E14.97769
G1 X100.951 Y78.829 E15.0253
G1 X101.636 Y78.793 E15.09012
G1 X108.663 Y78.79 E15.75417
G1 X121.209 Y78.792 E16.93977
G1 X121.703 Y78.803 E16.98647
G1 X122.204 Y78.854 E17.03405
G1 X122.69 Y78.984 E17.0816
G1 X123.15 Y79.189 E17.12919
G1 X123.572 Y79.464 E17.17679
G1 X123.945 Y79.802 E17.22435
G1 X124.26 Y80.195 E17.27195
G1 X124.509 Y80.633 E17.31956
G1 X124.685 Y81.105 E17.36717
G1 X124.784 Y81.598 E17.41468
G1 X124.806 Y81.919 E17.44509
G1 X124.822 Y82.802 E17.52855
G1 X124.823 Y88.669 E18.08298
G1 X124.797 Y112.582 E20.34276
G1 X124.821 Y128.178 E21.81658
G1 X124.812 Y128.919 E21.88661
G1 X124.766 Y129.42 E21.93416
G1 X124.641 Y129.908 E21.98176
G1 X124.441 Y130.37 E22.02934
G1 X124.17 Y130.795 E22.07697
G1 X123.835 Y131.171 E22.12456
G1 X123.445 Y131.49 E22.17217
G1 X123.01 Y131.743 E22.21973
G1 X122.54 Y131.924 E22.26732
G1 X122.048 Y132.028 E22.31484
G1 X121.419 Y132.063 E22.37437
G1 X121.319 Y132.065 E22.38383
G1 X102.019 Y132.065 E24.20768
G1 X101.321 Y132.056 E24.27364
G1 X100.82 Y132.009 E24.32119
G1 X100.332 Y131.884 E24.3688
G1 X99.87 Y131.684 E24.41637
G1 X99.446 Y131.412 E24.46398
G1 X99.069 Y131.078 E24.51157
G1 X98.751 Y130.687 E24.5592
G1 X98.498 Y130.252 E24.60676
G1 X98.317 Y129.782 E24.65435
G1 X98.213 Y129.289 E24.70196
G1 X98.179 Y128.6 E24.76715
G1 X98.177 Y122.187 E25.37318
G1 X98.203 Y98.275 E27.63287
G1 X98.179 Y82.61 E29.11321
G1 X98.187 Y81.939 E29.17663
G1 X98.233 Y81.438 E29.22417
G1 X98.358 Y80.95 E29.27177
G1 X98.558 Y80.488 E29.31935
G1 X98.829 Y80.063 E29.36698
G10
;MESH:McKee3DCar.stl
G0 F4500 X100.66 Y83.01
G0 X102.393 Y83.007
G0 X120.635 Y82.978
G0 X121.052 Y128.295
G11
G0 X121.122 Y128.365
;TYPE:WALL-INNER
G1 F1800 X101.878 Y128.365 E31.18554
G1 X101.877 Y122.19 E31.76908
G1 X101.903 Y98.541 E34.00391
G1 X101.878 Y82.492 E35.52054
G1 X108.663 Y82.49 E36.16172
G1 X121.122 Y82.491 E37.3391
G1 X121.123 Y88.666 E37.92264
G1 X121.097 Y112.316 E40.15756
G1 X121.122 Y128.365 E41.6742
G0 F4500 X121.447 Y128.69
;TYPE:WALL-OUTER
G1 F1800 X101.553 Y128.69 E43.55418
G1 X101.552 Y122.19 E44.16843
G1 X101.578 Y98.541 E46.40326
G1 X101.553 Y82.167 E47.95061
G1 X108.663 Y82.165 E48.6225
G1 X121.447 Y82.166 E49.83059
G1 X121.448 Y88.666 E50.44484
G1 X121.422 Y112.316 E52.67976
G1 X121.447 Y128.69 E54.22711
G0 F4500 X121.247 Y128.69
G0 X120.782 Y128.025
;TYPE:SKIN
G1 F1800 X102.218 Y128.025 E55.92878
G1 X102.217 Y122.19 E56.46364
G1 X102.243 Y98.541 E58.63143
G1 X102.218 Y82.832 E60.0714
G1 X108.663 Y82.83 E60.66218
G1 X120.782 Y82.831 E61.77307
G1 X120.783 Y88.666 E62.30793
G1 X120.757 Y112.316 E64.47581
G1 X120.782 Y128.025 E65.91578
G0 F4500 X120.708 Y83.503
G0 X120.625 Y83.502
G1 F1800 X120.111 Y82.988 E65.98241
G0 F4500 X119.616 Y82.988
G1 F1800 X120.625 Y83.997 E66.11321
G0 F4500 X120.625 Y84.492
G1 F1800 X119.121 Y82.988 E66.30818
G0 F4500 X118.626 Y82.988
G1 F1800 X120.625 Y84.987 E66.56732
G0 F4500 X120.625 Y85.482
G1 F1800 X118.131 Y82.988 E66.89063
G0 F4500 X117.636 Y82.988
G1 F1800 X120.625 Y85.977 E67.2781
G0 F4500 X120.625 Y86.472
G1 F1800 X117.141 Y82.988 E67.72975
G0 F4500 X116.646 Y82.988
G1 F1800 X120.625 Y86.967 E68.24556
G0 F4500 X120.625 Y87.462
G1 F1800 X116.151 Y82.988 E68.82554
G0 F4500 X115.656 Y82.988
G1 F1800 X120.625 Y87.957 E69.46969
G0 F4500 X120.625 Y88.451
G1 F1800 X115.161 Y82.988 E70.17795
G0 F4500 X114.666 Y82.988
G1 F1800 X120.625 Y88.946 E70.95037
G0 F4500 X120.624 Y89.441
G1 F1800 X114.171 Y82.988 E71.7869
G0 F4500 X113.676 Y82.988
G1 F1800 X120.624 Y89.936 E72.68759
G0 F4500 X120.623 Y90.43
G1 F1800 X113.181 Y82.988 E73.65233
G0 F4500 X112.686 Y82.988
G1 F1800 X120.623 Y90.924 E74.68117
G0 F4500 X120.622 Y91.419
G1 F1800 X112.191 Y82.988 E75.77411
G0 F4500 X111.696 Y82.988
G1 F1800 X120.621 Y91.913 E76.93109
G0 F4500 X120.621 Y92.408
G1 F1800 X111.201 Y82.988 E78.15225
G0 F4500 X110.706 Y82.988
G1 F1800 X120.621 Y92.902 E79.4375
G0 F4500 X120.62 Y93.396
G1 F1800 X110.211 Y82.988 E80.78679
G0 F4500 X109.716 Y82.988
G1 F1800 X120.619 Y93.891 E82.20019
G0 F4500 X120.619 Y94.386
G1 F1800 X109.221 Y82.988 E83.67776
G0 F4500 X108.726 Y82.988
G1 F1800 X120.618 Y94.88 E85.21937
G0 F4500 X120.618 Y95.374
G1 F1800 X108.231 Y82.988 E86.82508
G0 F4500 X107.736 Y82.988
G1 F1800 X120.617 Y95.868 E88.49483
G0 F4500 X120.616 Y96.363
G1 F1800 X107.241 Y82.988 E90.22868
G0 F4500 X106.746 Y82.988
G1 F1800 X120.616 Y96.858 E92.0267
G0 F4500 X120.616 Y97.352
G1 F1800 X106.252 Y82.988 E93.88876
G0 F4500 X105.757 Y82.988
G1 F1800 X120.615 Y97.846 E95.81486
G0 F4500 X120.614 Y98.34
G1 F1800 X105.262 Y82.988 E97.805
G0 F4500 X104.767 Y82.988
G1 F1800 X120.614 Y98.835 E99.85931
G0 F4500 X120.614 Y99.33
G1 F1800 X104.273 Y82.989 E101.97766
G0 F4500 X103.778 Y82.989
G1 F1800 X120.613 Y99.824 E104.16004
G0 F4500 X120.612 Y100.318
G1 F1800 X103.283 Y82.989 E106.40647
G0 F4500 X102.788 Y82.989
G1 F1800 X120.611 Y100.812 E108.71693
G0 F4500 X120.611 Y101.307
G1 F1800 X102.374 Y83.07 E111.08107
G0 F4500 X102.374 Y83.565
G1 F1800 X120.611 Y101.802 E113.4452
G0 F4500 X120.61 Y102.296
G1 F1800 X102.375 Y84.061 E115.80907
G0 F4500 X102.376 Y84.557
G1 F1800 X120.609 Y102.79 E118.17269
G0 F4500 X120.609 Y103.285
G1 F1800 X102.377 Y85.052 E120.53624
G0 F4500 X102.377 Y85.548
G1 F1800 X120.609 Y103.779 E122.89966
G0 F4500 X120.608 Y104.274
G1 F1800 X102.378 Y86.044 E125.26288
G0 F4500 X102.379 Y86.539
G1 F1800 X120.607 Y104.768 E127.62592
G0 F4500 X120.607 Y105.263
G1 F1800 X102.38 Y87.036 E129.98875
G0 F4500 X102.381 Y87.532
G1 F1800 X120.606 Y105.757 E132.35133
G0 F4500 X120.606 Y106.251
G1 F1800 X102.381 Y88.027 E134.71384
G0 F4500 X102.382 Y88.523
G1 F1800 X120.605 Y106.746 E137.07616
G0 F4500 X120.604 Y107.24
G1 F1800 X102.383 Y89.019 E139.43822
G0 F4500 X102.384 Y89.514
G1 F1800 X120.604 Y107.735 E141.80021
G0 F4500 X120.604 Y108.229
G1 F1800 X102.384 Y90.01 E144.16208
G0 F4500 X102.385 Y90.506
G1 F1800 X120.603 Y108.724 E146.52375
G0 F4500 X120.602 Y109.218
G1 F1800 X102.386 Y91.002 E148.88516
G0 F4500 X102.387 Y91.498
G1 F1800 X120.602 Y109.713 E151.24644
G0 F4500 X120.602 Y110.207
G1 F1800 X102.388 Y91.993 E153.60759
G0 F4500 X102.389 Y92.489
G1 F1800 X120.601 Y110.701 E155.96849
G0 F4500 X120.6 Y111.196
G1 F1800 X102.389 Y92.985 E158.32925
G0 F4500 X102.39 Y93.48
G1 F1800 X120.599 Y111.69 E160.68982
G0 F4500 X120.599 Y112.185
G1 F1800 X102.391 Y93.976 E163.05025
G0 F4500 X102.391 Y94.472
G1 F1800 X120.599 Y112.68 E165.41063
G0 F4500 X120.601 Y113.176
G1 F1800 X102.392 Y94.967 E167.77113
G0 F4500 X102.394 Y95.464
G1 F1800 X120.602 Y113.672 E170.13151
G0 F4500 X120.602 Y114.168
G1 F1800 X102.394 Y95.96 E172.49188
G0 F4500 X102.395 Y96.455
G1 F1800 X120.603 Y114.663 E174.85225
G0 F4500 X120.604 Y115.159
G1 F1800 X102.396 Y96.951 E177.21263
G0 F4500 X102.396 Y97.447
G1 F1800 X120.604 Y115.655 E179.573
G0 F4500 X120.606 Y116.151
G1 F1800 X102.397 Y97.942 E181.9335
G0 F4500 X102.398 Y98.438
G1 F1800 X120.606 Y116.647 E184.29394
G0 F4500 X120.607 Y117.142
G1 F1800 X102.398 Y98.933 E186.65445
G0 F4500 X102.397 Y99.427
G1 F1800 X120.608 Y117.638 E189.01521
G0 F4500 X120.609 Y118.134
G1 F1800 X102.396 Y99.921 E191.37623
G0 F4500 X102.396 Y100.416
G1 F1800 X120.61 Y118.63 E193.73738
G0 F4500 X120.611 Y119.126
G1 F1800 X102.396 Y100.911 E196.09866
G0 F4500 X102.395 Y101.405
G1 F1800 X120.611 Y119.621 E198.46008
G0 F4500 X120.612 Y120.117
G1 F1800 X102.394 Y101.899 E200.82175
G0 F4500 X102.394 Y102.394
G1 F1800 X120.613 Y120.613 E203.18355
G0 F4500 X120.614 Y121.109
G1 F1800 X102.394 Y102.888 E205.54554
G0 F4500 X102.393 Y103.383
G1 F1800 X120.615 Y121.605 E207.90773
G0 F4500 X120.616 Y122.101
G1 F1800 X102.392 Y103.877 E210.27018
G0 F4500 X102.392 Y104.372
G1 F1800 X120.616 Y122.596 E212.63262
G0 F4500 X120.617 Y123.092
G1 F1800 X102.391 Y104.866 E214.99533
G0 F4500 X102.391 Y105.361
G1 F1800 X120.618 Y123.588 E217.35817
G0 F4500 X120.618 Y124.083
G1 F1800 X102.39 Y105.855 E219.72113
G0 F4500 X102.39 Y106.35
G1 F1800 X120.62 Y124.58 E222.08436
G0 F4500 X120.621 Y125.075
G1 F1800 X102.389 Y106.844 E224.44778
G0 F4500 X102.389 Y107.338
G1 F1800 X120.621 Y125.571 E226.81133
G0 F4500 X120.622 Y126.067
G1 F1800 X102.388 Y107.833 E229.17507
G0 F4500 X102.388 Y108.328
G1 F1800 X120.623 Y126.562 E231.53888
G0 F4500 X120.624 Y127.059
G1 F1800 X102.387 Y108.822 E233.90302
G0 F4500 X102.386 Y109.316
G1 F1800 X120.625 Y127.554 E236.26734
G0 F4500 X120.442 Y127.867
G1 F1800 X102.386 Y109.81 E238.60808
G0 F4500 X102.386 Y110.305
G1 F1800 X119.947 Y127.867 E240.88464
G0 F4500 X119.452 Y127.867
G1 F1800 X102.385 Y110.8 E243.09711
G0 F4500 X102.384 Y111.294
G1 F1800 X118.957 Y127.867 E245.24553
G0 F4500 X118.463 Y127.867
G1 F1800 X102.384 Y111.788 E247.32991
G0 F4500 X102.384 Y112.283
G1 F1800 X117.968 Y127.867 E249.35013
G0 F4500 X117.473 Y127.867
G1 F1800 X102.383 Y112.777 E251.3063
G0 F4500 X102.382 Y113.272
G1 F1800 X116.978 Y127.867 E253.19837
G0 F4500 X116.483 Y127.867
G1 F1800 X102.381 Y113.766 E255.0264
G0 F4500 X102.381 Y114.261
G1 F1800 X115.988 Y127.867 E256.79027
G0 F4500 X115.493 Y127.867
G1 F1800 X102.381 Y114.755 E258.49003
G0 F4500 X102.38 Y115.249
G1 F1800 X114.998 Y127.867 E260.12575
G0 F4500 X114.503 Y127.867
G1 F1800 X102.379 Y115.744 E261.69736
G0 F4500 X102.379 Y116.239
G1 F1800 X114.008 Y127.867 E263.20481
G0 F4500 X113.513 Y127.867
G1 F1800 X102.379 Y116.733 E264.64816
G0 F4500 X102.378 Y117.227
G1 F1800 X113.018 Y127.867 E266.02746
G0 F4500 X112.523 Y127.867
G1 F1800 X102.377 Y117.721 E267.34273
G0 F4500 X102.377 Y118.216
G1 F1800 X112.028 Y127.867 E268.59382
G0 F4500 X111.533 Y127.867
G1 F1800 X102.377 Y118.711 E269.78075
G0 F4500 X102.376 Y119.205
G1 F1800 X111.038 Y127.867 E270.90364
G0 F4500 X110.543 Y127.867
G1 F1800 X102.375 Y119.699 E271.96249
G0 F4500 X102.375 Y120.194
G1 F1800 X110.048 Y127.867 E272.95717
G0 F4500 X109.553 Y127.867
G1 F1800 X102.374 Y120.688 E273.88781
G0 F4500 X102.374 Y121.183
G1 F1800 X109.058 Y127.867 E274.75428
G0 F4500 X108.563 Y127.867
G1 F1800 X102.373 Y121.677 E275.55672
G0 F4500 X102.373 Y122.172
G1 F1800 X108.068 Y127.867 E276.29498
G0 F4500 X107.573 Y127.867
G1 F1800 X102.373 Y122.667 E276.96908
G0 F4500 X102.373 Y123.162
G1 F1800 X107.078 Y127.867 E277.57901
G0 F4500 X106.583 Y127.867
G1 F1800 X102.373 Y123.657 E278.12476
G0 F4500 X102.373 Y124.152
G1 F1800 X106.088 Y127.867 E278.60635
G0 F4500 X105.593 Y127.867
G1 F1800 X102.373 Y124.647 E279.02378
G0 F4500 X102.374 Y125.143
G1 F1800 X105.098 Y127.867 E279.3769
G0 F4500 X104.603 Y127.867
G1 F1800 X102.374 Y125.638 E279.66585
G0 F4500 X102.374 Y126.133
G1 F1800 X104.108 Y127.867 E279.89064
G0 F4500 X103.613 Y127.867
G1 F1800 X102.374 Y126.627 E280.05132
G0 F4500 X102.374 Y127.122
G1 F1800 X103.118 Y127.867 E280.14783
G0 F4500 X102.623 Y127.867
G1 F1800 X102.374 Y127.617 E280.18018
G0 F4500 X102.228 Y127.617
;MESH:NONMESH
G0 F600 X102.228 Y127.617 Z0.42
G0 F4500 X121.052 Y128.295
G0 X121.852 Y128.495
;TIME_ELAPSED:109.895133
;LAYER:1
M106 S255
;TYPE:WALL-INNER
;MESH:McKee3DCar.stl
G1 F2400 X101.148 Y128.496 E281.26714
G1 X101.151 Y119.691 E281.7294
G1 X101.147 Y111.541 E282.15727
G1 X101.148 Y82.378 E283.68833
G1 X121.852 Y82.378 E284.77529
G1 X121.849 Y91.182 E285.2375
G1 X121.853 Y99.333 E285.66543
G1 X121.852 Y128.495 E287.19643
G0 F6750 X122.177 Y128.82
;TYPE:WALL-OUTER
G1 F2100 X100.951 Y128.821 E288.3108
G1 X100.823 Y128.819 E288.31752
G1 X100.826 Y119.691 E288.79674
G1 X100.822 Y111.541 E289.22461
G1 X100.823 Y82.053 E290.77273
G1 X122.177 Y82.053 E291.89382
G1 X122.174 Y91.182 E292.37309
G1 X122.178 Y99.333 E292.80102
G1 X122.177 Y128.82 E294.34909
G0 F6750 X121.977 Y128.82
G0 X121.512 Y128.155
;TYPE:SKIN
G1 F1800 X101.488 Y128.156 E295.36881
G1 X101.491 Y119.691 E295.79989
G1 X101.487 Y111.541 E296.21493
G1 X101.488 Y82.718 E297.68274
G1 X121.512 Y82.718 E298.70246
G1 X121.509 Y91.182 E299.13349
G1 X121.513 Y99.333 E299.54858
G1 X121.512 Y128.155 E301.01634
G0 F6750 X101.907 Y82.865
G0 X101.644 Y82.981
G1 F1800 X101.75 Y82.875 E301.02397
G0 F6750 X102.245 Y82.875
G1 F1800 X101.644 Y83.476 E301.06726
G0 F6750 X101.644 Y83.971
G1 F1800 X102.74 Y82.875 E301.14619
G0 F6750 X103.235 Y82.875
G1 F1800 X101.644 Y84.466 E301.26077
G0 F6750 X101.644 Y84.961
G1 F1800 X103.73 Y82.875 E301.411
G0 F6750 X104.225 Y82.875
G1 F1800 X101.644 Y85.455 E301.59685
G0 F6750 X101.644 Y85.95
G1 F1800 X104.72 Y82.875 E301.81834
G0 F6750 X105.215 Y82.875
G1 F1800 X101.644 Y86.445 E302.07549
G0 F6750 X101.644 Y86.94
G1 F1800 X105.71 Y82.875 E302.36828
G0 F6750 X106.205 Y82.875
G1 F1800 X101.644 Y87.435 E302.69672
G0 F6750 X101.644 Y87.93
G1 F1800 X106.7 Y82.875 E303.06081
G0 F6750 X107.195 Y82.875
G1 F1800 X101.644 Y88.425 E303.46055
G0 F6750 X101.644 Y88.92
G1 F1800 X107.69 Y82.875 E303.89594
G0 F6750 X108.185 Y82.875
G1 F1800 X101.644 Y89.415 E304.36698
G0 F6750 X101.644 Y89.91
G1 F1800 X108.68 Y82.875 E304.87367
G0 F6750 X109.175 Y82.875
G1 F1800 X101.644 Y90.405 E305.41601
G0 F6750 X101.644 Y90.9
G1 F1800 X109.67 Y82.875 E305.99399
G0 F6750 X110.165 Y82.875
G1 F1800 X101.644 Y91.395 E306.60763
G0 F6750 X101.644 Y91.89
G1 F1800 X110.66 Y82.875 E307.25692
G0 F6750 X111.155 Y82.875
G1 F1800 X101.644 Y92.385 E307.94185
G0 F6750 X101.644 Y92.88
G1 F1800 X111.65 Y82.875 E308.66243
G0 F6750 X112.145 Y82.875
G1 F1800 X101.644 Y93.375 E309.41867
G0 F6750 X101.644 Y93.87
G1 F1800 X112.639 Y82.875 E310.21052
G0 F6750 X113.134 Y82.875
G1 F1800 X101.644 Y94.365 E311.03801
G0 F6750 X101.644 Y94.86
G1 F1800 X113.629 Y82.875 E311.90116
G0 F6750 X114.124 Y82.875
G1 F1800 X101.644 Y95.355 E312.79995
G0 F6750 X101.644 Y95.85
G1 F1800 X114.619 Y82.875 E313.7344
G0 F6750 X115.114 Y82.875
G1 F1800 X101.644 Y96.345 E314.70449
G0 F6750 X101.644 Y96.84
G1 F1800 X115.609 Y82.875 E315.71023
G0 F6750 X116.104 Y82.875
G1 F1800 X101.644 Y97.335 E316.75163
G0 F6750 X101.644 Y97.83
G1 F1800 X116.599 Y82.875 E317.82867
G0 F6750 X117.094 Y82.875
G1 F1800 X101.644 Y98.325 E318.94136
G0 F6750 X101.644 Y98.82
